Newaita-dark/mimetypes/32/text-x-sass.svg

<?xml version="1.0" encoding="UTF-8"?>
<svg xmlns="http://www.w3.org/2000/svg" xmlns:xlink="http://www.w3.org/1999/xlink" width="32px" height="32px" viewBox="0 0 32 32" version="1.1">
<defs>
<linearGradient id="linear0" gradientUnits="userSpaceOnUse" x1="254" y1="233.5" x2="254" y2="254.666672" gradientTransform="matrix(0.062506,0,0,0.062506,0.661522,13.438786)">
<stop offset="0" style="stop-color:rgb(0%,0%,0%);stop-opacity:0.27451;"/>
<stop offset="1" style="stop-color:rgb(0%,0%,0%);stop-opacity:0;"/>
</linearGradient>
<radialGradient id="radial0" gradientUnits="userSpaceOnUse" cx="450.908936" cy="189.579361" fx="450.908936" fy="189.579361" r="21.166656" gradientTransform="matrix(0.00000017417,-0.0781325,-0.140638,-0.000000101539,49.484568,63.595336)">
<stop offset="0" style="stop-color:rgb(0%,0%,0%);stop-opacity:0.313726;"/>
<stop offset="0.222222" style="stop-color:rgb(0%,0%,0%);stop-opacity:0.27451;"/>
<stop offset="1" style="stop-color:rgb(0%,0%,0%);stop-opacity:0;"/>
</radialGradient>
<radialGradient id="radial1" gradientUnits="userSpaceOnUse" cx="450.908936" cy="189.579361" fx="450.908936" fy="189.579361" r="21.166656" gradientTransform="matrix(-0.00000017417,0.0781325,0.140638,0.000000101539,-18.393051,-7.527477)">
<stop offset="0" style="stop-color:rgb(0%,0%,0%);stop-opacity:0.313726;"/>
<stop offset="0.222222" style="stop-color:rgb(0%,0%,0%);stop-opacity:0.27451;"/>
<stop offset="1" style="stop-color:rgb(0%,0%,0%);stop-opacity:0;"/>
</radialGradient>
<radialGradient id="radial2" gradientUnits="userSpaceOnUse" cx="450.908936" cy="189.579361" fx="450.908936" fy="189.579361" r="21.166656" gradientTransform="matrix(-0.00000017417,-0.0781325,0.140638,-0.000000101539,-18.393051,63.595336)">
<stop offset="0" style="stop-color:rgb(0%,0%,0%);stop-opacity:0.313726;"/>
<stop offset="0.222222" style="stop-color:rgb(0%,0%,0%);stop-opacity:0.27451;"/>
<stop offset="1" style="stop-color:rgb(0%,0%,0%);stop-opacity:0;"/>
</radialGradient>
<radialGradient id="radial3" gradientUnits="userSpaceOnUse" cx="450.908936" cy="189.579361" fx="450.908936" fy="189.579361" r="21.166656" gradientTransform="matrix(0.00000017417,0.0781325,-0.140638,0.000000101539,49.484568,-7.527479)">
<stop offset="0" style="stop-color:rgb(0%,0%,0%);stop-opacity:0.313726;"/>
<stop offset="0.222222" style="stop-color:rgb(0%,0%,0%);stop-opacity:0.27451;"/>
<stop offset="1" style="stop-color:rgb(0%,0%,0%);stop-opacity:0;"/>
</radialGradient>
<linearGradient id="linear1" gradientUnits="userSpaceOnUse" x1="940" y1="1695.118164" x2="940" y2="175.118118" gradientTransform="matrix(0.016538,0,0,0.016538,0,0)">
<stop offset="0" style="stop-color:rgb(95.686275%,56.078434%,69.411767%);stop-opacity:1;"/>
<stop offset="1" style="stop-color:rgb(97.254902%,73.333335%,81.568629%);stop-opacity:1;"/>
</linearGradient>
<linearGradient id="linear2" gradientUnits="userSpaceOnUse" x1="249.189423" y1="233.5" x2="249.189423" y2="254.666687" gradientTransform="matrix(0.0298942,0,0,0.109385,15.042422,-16.360911)">
<stop offset="0" style="stop-color:rgb(0%,0%,0%);stop-opacity:0.27451;"/>
<stop offset="1" style="stop-color:rgb(0%,0%,0%);stop-opacity:0;"/>
</linearGradient>
<linearGradient id="linear3" gradientUnits="userSpaceOnUse" x1="338.666656" y1="233.5" x2="338.666656" y2="-168.666672" gradientTransform="matrix(0.062506,0,0,0.062506,0,13.438783)">
<stop offset="0" style="stop-color:rgb(92.54902%,25.098041%,47.843137%);stop-opacity:1;"/>
<stop offset="1" style="stop-color:rgb(94.117647%,38.431373%,57.254905%);stop-opacity:1;"/>
</linearGradient>
<linearGradient id="linear4" gradientUnits="userSpaceOnUse" x1="248.708344" y1="233.5" x2="243.416672" y2="-168.666672" gradientTransform="matrix(1.141048,0,0,1.141048,-31.893377,-8.591855)">
<stop offset="0" style="stop-color:rgb(92.54902%,25.098041%,47.843137%);stop-opacity:1;"/>
<stop offset="1" style="stop-color:rgb(94.117647%,38.431373%,57.254905%);stop-opacity:1;"/>
</linearGradient>
</defs>
<g id="surface1">
<path style=" stroke:none;fill-rule:nonzero;fill:url(#linear0);" d="M 7.9375 28.035156 L 23.152344 28.035156 L 23.152344 29.355469 L 7.9375 29.355469 Z M 7.9375 28.035156 "/>
<path style=" stroke:none;fill-rule:nonzero;fill:url(#radial0);" d="M 23.152344 28.035156 L 25.800781 28.035156 L 25.800781 26.710938 L 23.152344 26.710938 Z M 23.152344 28.035156 "/>
<path style=" stroke:none;fill-rule:nonzero;fill:url(#radial1);" d="M 7.9375 28.035156 L 5.292969 28.035156 L 5.292969 29.355469 L 7.9375 29.355469 Z M 7.9375 28.035156 "/>
<path style=" stroke:none;fill-rule:nonzero;fill:url(#radial2);" d="M 7.9375 28.035156 L 5.292969 28.035156 L 5.292969 26.710938 L 7.9375 26.710938 Z M 7.9375 28.035156 "/>
<path style=" stroke:none;fill-rule:nonzero;fill:url(#radial3);" d="M 23.152344 28.035156 L 25.800781 28.035156 L 25.800781 29.355469 L 23.152344 29.355469 Z M 23.152344 28.035156 "/>
<path style=" stroke:none;fill-rule:nonzero;fill:url(#linear1);" d="M 18.542969 2.894531 L 6.613281 2.894531 C 5.882812 2.894531 5.292969 3.484375 5.292969 4.21875 L 5.292969 26.710938 C 5.292969 27.445312 5.882812 28.035156 6.613281 28.035156 L 24.476562 28.035156 C 25.210938 28.035156 25.800781 27.445312 25.800781 26.710938 L 25.800781 10.152344 Z M 18.542969 2.894531 "/>
<path style=" stroke:none;fill-rule:nonzero;fill:url(#linear2);" d="M 18.523438 9.179688 L 24.808594 9.179688 L 25.800781 10.171875 L 25.800781 11.496094 L 18.523438 11.496094 Z M 18.523438 9.179688 "/>
<path style=" stroke:none;fill-rule:nonzero;fill:rgb(0%,0%,0%);fill-opacity:0.235294;" d="M 5.292969 26.195312 L 5.292969 26.710938 C 5.292969 27.445312 5.882812 28.035156 6.613281 28.035156 L 24.476562 28.035156 C 25.210938 28.035156 25.800781 27.445312 25.800781 26.710938 L 25.800781 26.195312 C 25.800781 26.929688 25.210938 27.519531 24.476562 27.519531 L 6.613281 27.519531 C 5.882812 27.519531 5.292969 26.929688 5.292969 26.195312 Z M 5.292969 26.195312 "/>
<path style=" stroke:none;fill-rule:nonzero;fill:rgb(100%,100%,100%);fill-opacity:0.392157;" d="M 6.613281 2.894531 C 5.882812 2.894531 5.292969 3.484375 5.292969 4.21875 L 5.292969 4.714844 C 5.292969 3.980469 5.882812 3.390625 6.613281 3.390625 L 18.542969 3.390625 L 25.800781 10.648438 L 25.800781 10.152344 L 18.542969 2.894531 Z M 6.613281 2.894531 "/>
<path style=" stroke:none;fill-rule:nonzero;fill:url(#linear3);" d="M 25.800781 10.152344 L 18.542969 2.894531 L 18.542969 8.832031 C 18.542969 9.5625 19.132812 10.152344 19.863281 10.152344 Z M 25.800781 10.152344 "/>
<path style=" stroke:none;fill-rule:nonzero;fill:rgb(0%,0%,0%);fill-opacity:0.235294;" d="M 18.542969 8.519531 L 18.542969 8.832031 C 18.542969 9.5625 19.132812 10.152344 19.863281 10.152344 L 25.800781 10.152344 L 25.488281 9.84375 L 19.863281 9.84375 C 19.132812 9.84375 18.542969 9.253906 18.542969 8.519531 Z M 18.542969 8.519531 "/>
<path style=" stroke:none;fill-rule:nonzero;fill:rgb(100%,100%,100%);fill-opacity:0.392157;" d="M 18.542969 2.894531 L 18.542969 3.390625 L 25.304688 10.152344 L 25.800781 10.152344 Z M 18.542969 2.894531 "/>
<path style=" stroke:none;fill-rule:nonzero;fill:rgb(12.941177%,12.941177%,12.941177%);fill-opacity:1;" d="M 18.539062 2.800781 C 18.488281 2.804688 18.449219 2.84375 18.449219 2.894531 L 18.449219 8.832031 C 18.449219 9.613281 19.082031 10.246094 19.863281 10.246094 L 25.800781 10.246094 C 25.835938 10.246094 25.871094 10.222656 25.886719 10.1875 C 25.902344 10.152344 25.890625 10.113281 25.867188 10.085938 L 18.609375 2.828125 C 18.589844 2.8125 18.566406 2.800781 18.539062 2.800781 Z M 18.636719 3.121094 L 25.574219 10.058594 L 19.863281 10.058594 C 19.183594 10.058594 18.636719 9.511719 18.636719 8.832031 Z M 18.636719 3.121094 "/>
<path style=" stroke:none;fill-rule:nonzero;fill:rgb(12.941177%,12.941177%,12.941177%);fill-opacity:1;" d="M 6.613281 2.800781 C 5.832031 2.800781 5.199219 3.4375 5.199219 4.21875 L 5.199219 26.710938 C 5.199219 27.496094 5.832031 28.128906 6.613281 28.128906 L 24.476562 28.128906 C 25.257812 28.128906 25.894531 27.496094 25.894531 26.710938 L 25.894531 10.152344 C 25.894531 10.128906 25.882812 10.105469 25.867188 10.085938 L 18.609375 2.828125 C 18.589844 2.8125 18.566406 2.800781 18.542969 2.800781 Z M 6.613281 2.988281 L 18.503906 2.988281 L 25.707031 10.191406 L 25.707031 26.710938 C 25.707031 27.394531 25.160156 27.941406 24.476562 27.941406 L 6.613281 27.941406 C 5.933594 27.941406 5.386719 27.394531 5.386719 26.710938 L 5.386719 4.21875 C 5.386719 3.535156 5.933594 2.988281 6.613281 2.988281 Z M 6.613281 2.988281 "/>
<path style="fill-rule:nonzero;fill:url(#linear4);stroke-width:3;stroke-linecap:butt;stroke-linejoin:miter;stroke:rgb(12.941177%,12.941177%,12.941177%);stroke-opacity:1;stroke-miterlimit:4;" d="M 324.968967 52.66194 C 317.969635 52.724434 311.84522 54.286784 306.783204 56.724052 C 304.908383 53.161892 302.971068 50.03719 302.658598 47.724911 C 302.346127 45.037668 301.908669 43.412823 302.346127 40.163133 C 302.783586 36.975937 304.720901 32.413873 304.720901 32.038909 C 304.658407 31.726439 304.283442 30.0391 300.22133 30.0391 C 296.221712 29.914112 292.722046 30.789028 292.347082 31.788933 C 291.909624 32.788837 291.159696 35.101117 290.659743 37.47589 C 289.909815 40.975556 282.535519 53.474362 278.348419 59.973741 C 276.97355 57.47398 275.786164 55.224195 275.598682 53.411868 C 275.223717 50.724625 274.786259 49.09978 275.223717 45.85009 C 275.661176 42.662894 277.598491 38.10083 277.598491 37.725866 C 277.598491 37.350902 277.161032 35.726057 273.161414 35.726057 C 269.099302 35.601069 265.599637 36.475985 265.224672 37.47589 C 264.849708 38.475794 264.41225 40.850567 263.537333 43.162847 C 262.724911 45.475126 252.913348 66.285639 250.351093 71.722619 C 249.038718 74.472357 247.913825 76.659648 247.101403 78.159505 C 246.288981 79.659361 247.038909 78.284493 246.976415 78.409481 C 246.288981 79.721855 245.851522 80.40929 245.851522 80.40929 L 245.851522 80.471784 C 245.35157 81.409194 244.72663 82.346605 244.476654 82.346605 C 244.289172 82.346605 243.851713 79.846844 244.539148 76.409672 C 245.97651 69.160364 249.53867 57.911438 249.476176 57.536474 C 249.476176 57.348992 250.163611 55.349183 247.226391 54.349278 C 244.351666 53.349374 243.351761 54.974219 243.101785 54.974219 C 242.851809 54.974219 242.664327 55.599159 242.664327 55.599159 C 242.664327 55.599159 245.851522 42.912871 236.602406 42.912871 C 230.790461 42.912871 222.791225 48.974792 218.791606 54.411772 C 216.291845 55.724147 210.979852 58.536379 205.292896 61.473598 C 203.168098 62.598491 200.918313 63.785877 198.793516 64.848276 L 198.356058 64.410818 C 187.169626 53.036904 166.421608 44.975174 167.296524 29.601642 C 167.608994 24.039673 169.608803 9.353575 207.105222 -8.457224 C 237.852286 -23.018333 262.412441 -19.018715 266.724529 -10.144563 C 272.78645 2.60422 253.600782 26.226964 221.666332 29.601642 C 209.479996 30.914016 203.105604 26.414446 201.48076 24.789601 C 199.793421 22.977274 199.543445 22.91478 198.918504 23.289744 C 197.9186 23.789697 198.54354 25.352048 198.918504 26.289458 C 199.855915 28.664231 203.793039 32.851331 210.4799 34.913634 C 216.291845 36.725961 230.602979 37.78836 247.851331 31.413969 C 267.161987 24.289649 282.285543 4.479041 277.848467 -12.081878 C 273.348896 -28.955266 243.976701 -34.517235 216.291845 -25.080636 C 199.730927 -19.518668 181.857633 -10.769503 168.983863 0.729399 C 153.672825 14.353098 151.298052 26.226964 152.297956 31.163993 C 155.860116 48.78731 181.295187 60.223717 191.544208 68.722906 C 190.981762 68.972882 190.544304 69.222858 190.106846 69.472834 C 184.982335 71.847607 165.609185 81.534182 160.734651 91.783204 C 155.235176 103.3446 161.609567 111.7188 165.796667 112.843692 C 178.920414 116.280864 192.356631 110.031461 199.605939 99.78244 C 206.792752 89.470924 205.98033 76.159696 202.605652 70.03528 L 202.480664 69.847798 L 206.480282 67.598013 C 209.105031 66.16065 211.667287 64.785782 213.854578 63.660889 C 212.604697 66.910579 211.729781 70.722715 211.229829 76.347178 C 210.667382 82.909051 213.542108 91.470734 217.229256 94.845411 C 218.916595 96.282774 220.85391 96.282774 222.10379 96.282774 C 226.415878 96.282774 228.353193 92.908096 230.47799 88.845984 C 233.165234 83.846462 235.540007 78.097011 235.540007 78.097011 C 235.540007 78.097011 232.602788 93.720519 240.602024 93.720519 C 243.539243 93.720519 246.538957 90.095865 247.851331 88.221044 L 247.851331 88.283538 C 247.851331 88.283538 247.913825 88.15855 248.101308 87.908574 C 248.413778 87.471115 248.538766 87.221139 248.538766 87.221139 L 248.538766 87.096151 C 249.726152 85.158836 252.350902 80.72176 256.288026 73.347464 C 261.350042 63.848371 266.224577 51.974505 266.224577 51.974505 C 266.224577 51.974505 266.662035 54.911725 268.099398 59.661271 C 268.974314 62.535997 270.849135 65.598204 272.348992 68.660412 C 271.161605 70.222763 270.411677 71.097679 270.411677 71.097679 L 270.474171 71.222667 C 269.536761 72.410054 268.474362 73.659934 267.349469 74.909815 C 263.349851 79.471879 258.600305 84.658884 257.975365 86.158741 C 257.225436 87.971068 257.350424 89.220948 258.850281 90.283347 C 259.91268 91.033275 261.787501 91.220757 263.78731 91.033275 C 267.349469 90.845793 269.911725 89.970877 271.161605 89.40843 C 273.09892 88.78349 275.348706 87.783586 277.473503 86.283729 C 281.410627 83.471497 283.7854 79.596867 283.597918 74.347369 C 283.47293 71.472643 282.473025 68.597918 281.285639 65.910674 C 281.598109 65.473216 281.973073 64.973264 282.348037 64.410818 C 288.534946 55.786641 293.284493 46.287548 293.284493 46.287548 C 293.284493 46.287548 293.784445 49.224768 295.221808 53.974314 C 295.971736 56.411581 297.471593 59.098825 298.783968 61.723574 C 292.972023 66.223145 289.347369 71.472643 288.097488 74.909815 C 285.785209 81.221712 287.597536 84.096438 290.972214 84.783872 C 292.534564 85.096342 294.721855 84.408908 296.3467 83.783968 C 298.409003 83.096533 300.908765 82.034135 303.15855 80.40929 C 307.095674 77.659552 310.845316 73.784922 310.657834 68.597918 C 310.532846 66.223145 309.845411 63.848371 308.970495 61.598586 C 313.907523 59.661271 320.281915 58.536379 328.406139 59.473789 C 345.841974 61.411104 349.34164 71.847607 348.654205 76.159696 C 347.966771 80.471784 344.342117 82.909051 343.15473 83.658979 C 341.90485 84.346414 341.529886 84.59639 341.654874 85.158836 C 341.779862 85.908765 342.342308 85.908765 343.404706 85.721283 C 344.842069 85.5338 352.591329 82.159123 352.903799 74.159887 C 353.341258 63.910865 343.15473 52.724434 324.968967 52.786928 Z M 190.356822 95.90781 C 184.544877 101.907237 176.420653 104.219516 172.983481 102.282201 C 169.296333 100.219898 170.733696 91.345745 177.795521 84.971354 C 182.10761 81.096724 187.732072 77.47207 191.41922 75.284779 C 192.231643 74.784827 193.544017 74.097393 194.98138 73.222476 C 195.231356 73.097488 195.418838 73.034994 195.418838 73.034994 C 195.668815 72.847512 195.981285 72.66003 196.293755 72.472548 C 198.918504 81.596676 196.418743 89.595913 190.356822 95.90781 Z M 232.477799 68.597918 C 230.47799 73.28497 226.29089 85.283824 223.728635 84.59639 C 221.541344 84.033944 220.166475 74.972309 223.291177 65.973168 C 224.853528 61.473598 228.165711 56.099111 230.16552 53.974314 C 233.352716 50.599637 236.789888 49.474744 237.664804 50.849613 C 238.664709 52.66194 233.790174 65.660698 232.477799 68.597918 Z M 267.286975 84.471402 C 266.412059 84.846366 265.662131 85.158836 265.287166 84.90886 C 265.03719 84.783872 265.662131 84.221426 265.662131 84.221426 C 265.662131 84.221426 269.974219 79.78435 271.724052 77.722046 C 272.723956 76.53466 273.911343 75.159791 275.161223 73.534946 L 275.161223 74.034899 C 275.161223 79.409385 269.724243 82.971545 267.286975 84.408908 Z M 294.159409 78.596963 C 293.471975 78.159505 293.596963 76.784636 295.72176 72.472548 C 296.534182 70.722715 298.409003 67.847989 301.658693 65.098252 C 302.033657 66.223145 302.283633 67.348037 302.221139 68.347942 C 302.221139 75.034803 297.159123 77.534564 294.159409 78.596963 Z M 294.159409 78.596963 " transform="matrix(0.062506,0,0,0.062506,0,13.438783)"/>
</g>
</svg>

<svg xmlns="http://www.w3.org/2000/svg" width="32pt" height="32pt" viewBox="0 0 32 32"><defs><linearGradient id="a" gradientUnits="userSpaceOnUse" x1="254" y1="233.5" x2="254" y2="254.667" gradientTransform="matrix(.0625 0 0 .0625 .662 13.439)"><stop offset="0" stop-opacity=".275"/><stop offset="1" stop-opacity="0"/></linearGradient><radialGradient id="b" gradientUnits="userSpaceOnUse" cx="450.909" cy="189.579" fx="450.909" fy="189.579" r="21.167" gradientTransform="matrix(0 -.07813 -.14064 0 49.485 63.595)"><stop offset="0" stop-opacity=".314"/><stop offset=".222" stop-opacity=".275"/><stop offset="1" stop-opacity="0"/></radialGradient><radialGradient id="c" gradientUnits="userSpaceOnUse" cx="450.909" cy="189.579" fx="450.909" fy="189.579" r="21.167" gradientTransform="matrix(0 .07813 .14064 0 -18.393 -7.527)"><stop offset="0" stop-opacity=".314"/><stop offset=".222" stop-opacity=".275"/><stop offset="1" stop-opacity="0"/></radialGradient><radialGradient id="d" gradientUnits="userSpaceOnUse" cx="450.909" cy="189.579" fx="450.909" fy="189.579" r="21.167" gradientTransform="matrix(0 -.07813 .14064 0 -18.393 63.595)"><stop offset="0" stop-opacity=".314"/><stop offset=".222" stop-opacity=".275"/><stop offset="1" stop-opacity="0"/></radialGradient><radialGradient id="e" gradientUnits="userSpaceOnUse" cx="450.909" cy="189.579" fx="450.909" fy="189.579" r="21.167" gradientTransform="matrix(0 .07813 -.14064 0 49.485 -7.527)"><stop offset="0" stop-opacity=".314"/><stop offset=".222" stop-opacity=".275"/><stop offset="1" stop-opacity="0"/></radialGradient><linearGradient id="f" gradientUnits="userSpaceOnUse" x1="940" y1="1695.118" x2="940" y2="175.118" gradientTransform="rotate(.891) scale(.01654)"><stop offset="0" stop-color="#f48fb1"/><stop offset="1" stop-color="#f8bbd0"/></linearGradient><linearGradient id="g" gradientUnits="userSpaceOnUse" x1="249.189" y1="233.5" x2="249.189" y2="254.667" gradientTransform="matrix(.0299 0 0 .10938 15.042 -16.36)"><stop offset="0" stop-opacity=".275"/><stop offset="1" stop-opacity="0"/></linearGradient><linearGradient id="h" gradientUnits="userSpaceOnUse" x1="338.667" y1="233.5" x2="338.667" y2="-168.667" gradientTransform="matrix(.0625 0 0 .0625 0 13.439)"><stop offset="0" stop-color="#ec407a"/><stop offset="1" stop-color="#f06292"/></linearGradient><linearGradient id="i" gradientUnits="userSpaceOnUse" x1="248.708" y1="233.5" x2="243.417" y2="-168.667" gradientTransform="matrix(1.14105 0 0 1.14105 -31.893 -8.592)"><stop offset="0" stop-color="#ec407a"/><stop offset="1" stop-color="#f06292"/></linearGradient></defs><path d="M7.938 28.035h15.214v1.32H7.937zm0 0" fill="url(#a)"/><path d="M23.152 28.035h2.649v-1.324h-2.649zm0 0" fill="url(#b)"/><path d="M7.938 28.035H5.293v1.32h2.644zm0 0" fill="url(#c)"/><path d="M7.938 28.035H5.293v-1.324h2.644zm0 0" fill="url(#d)"/><path d="M23.152 28.035h2.649v1.32h-2.649zm0 0" fill="url(#e)"/><path d="M18.543 2.895H6.613c-.73 0-1.32.59-1.32 1.324V26.71c0 .734.59 1.324 1.32 1.324h17.864a1.32 1.32 0 0 0 1.324-1.324V10.152zm0 0" fill="url(#f)"/><path d="M18.523 9.18h6.286l.992.992v1.324h-7.278zm0 0" fill="url(#g)"/><path d="M5.293 26.195v.516c0 .734.59 1.324 1.32 1.324h17.864a1.32 1.32 0 0 0 1.324-1.324v-.516a1.32 1.32 0 0 1-1.324 1.325H6.613c-.73 0-1.32-.59-1.32-1.325zm0 0" fill-opacity=".235"/><path d="M6.613 2.895c-.73 0-1.32.59-1.32 1.324v.496c0-.735.59-1.324 1.32-1.324h11.93l7.258 7.257v-.496l-7.258-7.257zm0 0" fill="#fff" fill-opacity=".392"/><path d="M25.8 10.152l-7.257-7.257v5.937c0 .73.59 1.32 1.32 1.32zm0 0" fill="url(#h)"/><path d="M18.543 8.52v.312c0 .73.59 1.32 1.32 1.32h5.938l-.313-.308h-5.625c-.73 0-1.32-.59-1.32-1.324zm0 0" fill-opacity=".235"/><path d="M18.543 2.895v.496l6.762 6.761h.496zm0 0" fill="#fff" fill-opacity=".392"/><path d="M18.54 2.8a.094.094 0 0 0-.09.095v5.937c0 .781.632 1.414 1.413 1.414h5.938c.035 0 .07-.023.086-.059.015-.035.004-.074-.02-.101L18.61 2.828a.112.112 0 0 0-.07-.027zm.097.321l6.937 6.938h-5.71c-.68 0-1.227-.547-1.227-1.227zm0 0" fill="#212121"/><path d="M6.613 2.8C5.832 2.8 5.2 3.439 5.2 4.22V26.71c0 .785.633 1.418 1.414 1.418h17.864c.78 0 1.418-.633 1.418-1.418V10.152a.11.11 0 0 0-.028-.066L18.61 2.828a.11.11 0 0 0-.066-.027zm0 .188h11.89l7.204 7.203v16.52c0 .684-.547 1.23-1.23 1.23H6.613c-.68 0-1.226-.546-1.226-1.23V4.219c0-.684.547-1.23 1.226-1.23zm0 0" fill="#212121"/><path d="M324.969 52.662c-7 .062-13.124 1.625-18.186 4.062-1.875-3.562-3.812-6.687-4.124-9-.313-2.686-.75-4.311-.313-7.56.438-3.188 2.375-7.75 2.375-8.125-.063-.313-.438-2-4.5-2-4-.125-7.499.75-7.874 1.75-.437 1-1.187 3.312-1.687 5.687-.75 3.5-8.124 15.998-12.312 22.498-1.374-2.5-2.562-4.75-2.75-6.562-.374-2.687-.812-4.312-.374-7.562.437-3.187 2.374-7.75 2.374-8.124 0-.375-.437-2-4.437-2-4.062-.125-7.561.75-7.936 1.75s-.813 3.375-1.688 5.687c-.812 2.312-10.624 23.123-13.186 28.56a145.283 145.283 0 0 1-3.25 6.437c-.812 1.5-.062.124-.125.25-.687 1.312-1.124 2-1.124 2v.062c-.5.937-1.125 1.875-1.375 1.875-.188 0-.625-2.5.062-5.937 1.438-7.25 5-18.499 4.937-18.874 0-.187.688-2.187-2.25-3.187-2.874-1-3.874.625-4.124.625-.25 0-.438.625-.438.625s3.188-12.686-6.062-12.686c-5.812 0-13.81 6.062-17.81 11.499-2.5 1.312-7.812 4.124-13.5 7.062-2.124 1.124-4.374 2.312-6.498 3.374l-.438-.437c-11.186-11.374-31.934-19.436-31.06-34.81.313-5.561 2.313-20.247 39.81-38.058 30.746-14.561 55.306-10.562 59.619-1.688 6.061 12.75-13.124 36.372-45.059 39.747-12.186 1.312-18.56-3.188-20.185-4.812-1.688-1.813-1.938-1.875-2.562-1.5-1 .5-.375 2.062 0 3 .937 2.374 4.874 6.561 11.56 8.624 5.813 1.812 20.124 2.874 37.372-3.5 19.311-7.124 34.435-26.935 29.997-43.496-4.5-16.873-33.871-22.435-61.556-12.999C199.73-19.519 181.858-10.77 168.984.73c-15.311 13.624-17.686 25.498-16.686 30.435 3.562 17.623 28.997 29.06 39.246 37.559-.562.25-1 .5-1.437.75-5.125 2.375-24.498 12.061-29.372 22.31-5.5 11.562.875 19.936 5.062 21.06 13.123 3.438 26.56-2.812 33.809-13.06 7.187-10.312 6.374-23.623 3-29.748l-.125-.187 4-2.25a333.87 333.87 0 0 1 7.374-3.937c-1.25 3.25-2.125 7.062-2.625 12.686-.563 6.562 2.312 15.124 6 18.498 1.687 1.438 3.624 1.438 4.874 1.438 4.312 0 6.25-3.375 8.374-7.437 2.687-5 5.062-10.749 5.062-10.749s-2.937 15.624 5.062 15.624c2.937 0 5.937-3.625 7.25-5.5v.063s.062-.125.25-.375c.312-.438.437-.688.437-.688v-.125c1.187-1.937 3.812-6.374 7.749-13.749 5.062-9.499 9.937-21.372 9.937-21.372s.437 2.937 1.874 7.686c.875 2.875 2.75 5.937 4.25 9-1.187 1.562-1.937 2.437-1.937 2.437l.062.125c-.937 1.187-2 2.437-3.125 3.687-4 4.562-8.749 9.749-9.374 11.249-.75 1.812-.625 3.062.875 4.124 1.063.75 2.938.938 4.937.75 3.562-.187 6.125-1.062 7.375-1.625 1.937-.625 4.187-1.624 6.312-3.124 3.937-2.813 6.311-6.687 6.124-11.937-.125-2.874-1.125-5.75-2.312-8.436.312-.438.687-.938 1.062-1.5 6.187-8.624 10.936-18.123 10.936-18.123s.5 2.937 1.938 7.686c.75 2.438 2.25 5.125 3.562 7.75-5.812 4.5-9.437 9.749-10.687 13.186-2.312 6.312-.5 9.186 2.875 9.874 1.563.312 3.75-.375 5.375-1 2.062-.687 4.562-1.75 6.812-3.375 3.937-2.75 7.686-6.624 7.499-11.811-.125-2.375-.813-4.75-1.688-7 4.938-1.937 11.312-3.062 19.436-2.124 17.436 1.937 20.936 12.374 20.248 16.686-.687 4.312-4.312 6.75-5.5 7.499-1.25.687-1.624.937-1.5 1.5.126.75.688.75 1.75.562 1.438-.187 9.187-3.562 9.5-11.561.437-10.25-9.75-21.436-27.935-21.373zM190.357 95.908c-5.812 6-13.936 8.312-17.374 6.374-3.687-2.062-2.25-10.936 4.813-17.31 4.312-3.875 9.936-7.5 13.623-9.687.813-.5 2.125-1.188 3.562-2.063.25-.125.438-.187.438-.187.25-.187.562-.375.875-.562 2.625 9.124.125 17.123-5.937 23.435zm42.12-27.31c-1.999 4.687-6.186 16.686-8.748 15.998-2.188-.562-3.563-9.624-.438-18.623 1.563-4.5 4.875-9.874 6.875-11.999 3.187-3.374 6.624-4.5 7.499-3.124 1 1.812-3.875 14.81-5.187 17.748zm34.81 15.873c-.875.375-1.625.688-2 .438-.25-.125.375-.688.375-.688s4.312-4.437 6.062-6.499c1-1.187 2.187-2.562 3.437-4.187v.5c0 5.374-5.437 8.937-7.874 10.374zm26.872-5.874c-.687-.437-.562-1.812 1.563-6.124.812-1.75 2.687-4.625 5.937-7.375.375 1.125.625 2.25.562 3.25 0 6.687-5.062 9.187-8.062 10.249zm0 0" transform="matrix(.0625 0 0 .0625 0 13.439)" fill="url(#i)" stroke-width="3" stroke="#212121"/></svg>
